packages/tokens/icons/robot/size16Px.svg

<svg viewBox="0 0 16 16" fill="none" xmlns="http://www.w3.org/2000/svg" width="1em" height="1em"><path d="M8.5 2C8.5 2.27614 8.27614 2.5 8 2.5C7.72386 2.5 7.5 2.27614 7.5 2C7.5 1.72386 7.72386 1.5 8 1.5C8.27614 1.5 8.5 1.72386 8.5 2Z" stroke="currentColor"/><line x1="8" y1="2" x2="8" y2="4" stroke="currentColor"/><circle cx="10.5" cy="8.5" r="0.25" stroke="currentColor" stroke-width="0.5"/><circle cx="5.5" cy="8.5" r="0.25" stroke="currentColor" stroke-width="0.5"/><path d="M6.5 9.5C6.5 9.83333 6.875 10.5 8 10.5C9.125 10.5 9.5 9.83333 9.5 9.5" stroke="currentColor" stroke-linecap="round" stroke-linejoin="round"/><path d="M2.5 5.5L2.5 12C2.5 12.5523 2.94771 13 3.5 13L12.5 13C13.0523 13 13.5 12.5523 13.5 12L13.5 5.5C13.5 4.94772 13.0523 4.5 12.5 4.5L3.5 4.5C2.94772 4.5 2.5 4.94772 2.5 5.5Z" stroke="currentColor"/><rect x="13.5" y="7.5" width="1" height="2" rx="0.5" stroke="currentColor"/><rect x="1.5" y="7.5" width="1" height="2" rx="0.5" stroke="currentColor"/></svg>

<svg xmlns="http://www.w3.org/2000/svg" fill="none" viewBox="0 0 16 16" width="1em" height="1em"><path stroke="currentColor" d="M8.5 2a.5.5 0 1 1-1 0 .5.5 0 0 1 1 0ZM8 2v2"/><circle cx="10.5" cy="8.5" r=".25" stroke="currentColor" stroke-width=".5"/><circle cx="5.5" cy="8.5" r=".25" stroke="currentColor" stroke-width=".5"/><path stroke="currentColor" stroke-linecap="round" stroke-linejoin="round" d="M6.5 9.5c0 .333.375 1 1.5 1s1.5-.667 1.5-1"/><path stroke="currentColor" d="M2.5 5.5V12a1 1 0 0 0 1 1h9a1 1 0 0 0 1-1V5.5a1 1 0 0 0-1-1h-9a1 1 0 0 0-1 1Z"/><rect width="1" height="2" x="13.5" y="7.5" stroke="currentColor" rx=".5"/><rect width="1" height="2" x="1.5" y="7.5" stroke="currentColor" rx=".5"/></svg>
